public/images/instagram.svg

<?xml version="1.0" encoding="UTF-8"?>
<svg width="25px" height="25px" viewBox="0 0 25 25" version="1.1" xmlns="http://www.w3.org/2000/svg" xmlns:xlink="http://www.w3.org/1999/xlink">
    <!-- Generator: Sketch 48.2 (47327) - http://www.bohemiancoding.com/sketch -->
    <title>instagram-logo copy</title>
    <desc>Created with Sketch.</desc>
    <defs></defs>
    <g id="Page-1" stroke="none" stroke-width="1" fill="none" fill-rule="evenodd">
        <g id="Group-6" transform="translate(-1201.000000, -2.000000)" fill-rule="nonzero">
            <g id="instagram-logo-copy" transform="translate(1201.000000, 2.000000)">
                <path d="M18.0008824,0 L6.86088235,0 C3.07779412,0 0,3.07794118 0,6.86102941 L0,18.0010294 C0,21.7842647 3.07779412,24.8620588 6.86088235,24.8620588 L18.0008824,24.8620588 C21.7842647,24.8620588 24.8620588,21.7841176 24.8620588,18.0010294 L24.8620588,6.86102941 C24.8622059,3.07794118 21.7842647,0 18.0008824,0 Z" id="Shape" fill="#000000"></path>
                <path d="M12.4310294,6.025 C8.89852941,6.025 6.02470588,8.89882353 6.02470588,12.4313235 C6.02470588,15.9636765 8.89852941,18.8373529 12.4310294,18.8373529 C15.9635294,18.8373529 18.8373529,15.9636765 18.8373529,12.4313235 C18.8373529,8.89882353 15.9635294,6.025 12.4310294,6.025 Z M12.4310294,16.6313235 C10.115,16.6313235 8.23058824,14.7472059 8.23058824,12.4311765 C8.23058824,10.115 10.1148529,8.23073529 12.4310294,8.23073529 C14.7472059,8.23073529 16.6314706,10.115 16.6314706,12.4311765 C16.6314706,14.7472059 14.7470588,16.6313235 12.4310294,16.6313235 Z" id="Shape" fill="#FFFFFF"></path>
                <path d="M19.1060294,4.15455882 C18.6810294,4.15455882 18.2635294,4.32661765 17.9633824,4.62808824 C17.6617647,4.92808824 17.4883824,5.34573529 17.4883824,5.77220588 C17.4883824,6.19735294 17.6619118,6.61485294 17.9633824,6.91632353 C18.2633824,7.21632353 18.6810294,7.38985294 19.1060294,7.38985294 C19.5325,7.38985294 19.9486765,7.21632353 20.2501471,6.91632353 C20.5516176,6.61485294 20.7236765,6.19720588 20.7236765,5.77220588 C20.7236765,5.34573529 20.5516176,4.92808824 20.2501471,4.62808824 C19.9501471,4.32661765 19.5325,4.15455882 19.1060294,4.15455882 Z" id="Shape" fill="#FFFFFF"></path>
            </g>
        </g>
    </g>
</svg>

<svg width="25" height="25" xmlns="http://www.w3.org/2000/svg"><g fill="none"><path d="M18 0H6.86A6.869 6.869 0 0 0 0 6.861v11.14a6.869 6.869 0 0 0 6.86 6.861H18a6.869 6.869 0 0 0 6.862-6.861V6.861A6.869 6.869 0 0 0 18.001 0z" fill="#000"/><path d="M12.431 6.025a6.414 6.414 0 0 0-6.406 6.406 6.413 6.413 0 0 0 6.406 6.406 6.413 6.413 0 0 0 6.406-6.406 6.414 6.414 0 0 0-6.406-6.406zm0 10.606a4.205 4.205 0 0 1-4.2-4.2c0-2.316 1.884-4.2 4.2-4.2 2.316 0 4.2 1.884 4.2 4.2 0 2.316-1.884 4.2-4.2 4.2zm6.675-12.476c-.425 0-.842.172-1.143.473-.301.3-.475.718-.475 1.144 0 .425.174.843.475 1.144.3.3.718.474 1.143.474.426 0 .843-.174 1.144-.474a1.63 1.63 0 0 0 .474-1.144c0-.426-.172-.844-.474-1.144a1.625 1.625 0 0 0-1.144-.473z" fill="#FFF"/></g></svg>
